assets/sonr-icons/social-rss.svg

<svg xmlns="http://www.w3.org/2000/svg" width="24" height="24" fill="none" viewBox="0 0 24 24"><path fill="#000" d="M2.88001 16.88C2.33801 17.423 2.00201 18.172 2.00201 19C2.00201 19.828 2.33701 20.577 2.88001 21.12C3.42301 21.662 4.17201 21.998 5.00001 21.998C5.82801 21.998 6.57701 21.663 7.12001 21.12C7.61901 20.586 7.92501 19.866 7.92501 19.075C7.92501 17.418 6.58201 16.075 4.92501 16.075C4.13401 16.075 3.41501 16.381 2.87801 16.882L2.87901 16.88L2.87801 16.879L2.88001 16.88ZM5.71001 19.71C5.52801 19.891 5.27701 20.004 5.00001 20.004C4.44601 20.004 3.99601 19.555 3.99601 19C3.99601 18.723 4.10901 18.472 4.29001 18.29C4.47101 18.108 4.72301 17.994 5.00001 17.994C5.27701 17.994 5.52901 18.107 5.71001 18.29C5.89301 18.471 6.00501 18.723 6.00501 19C6.00501 19.277 5.89301 19.529 5.71001 19.71ZM5.00001 12C4.44801 12 4.00001 12.448 4.00001 13C4.00001 13.552 4.44801 14 5.00001 14C7.76101 14 10 16.239 10 19C10 19.552 10.448 20 11 20C11.552 20 12 19.552 12 19C12 15.134 8.86601 12 5.00001 12ZM5.00001 8C4.44801 8 4.00001 8.448 4.00001 9C4.00001 9.552 4.44801 10 5.00001 10C9.97001 10 14 14.03 14 19C14 19.552 14.448 20 15 20C15.552 20 16 19.552 16 19C15.992 15.963 14.763 13.216 12.779 11.22L12.78 11.221C10.784 9.238 8.03601 8.009 5.00201 8.001H5.00001V8ZM15.61 8.39C12.888 5.685 9.14101 4.011 5.00201 4H5.00001C4.44801 4 4.00001 4.448 4.00001 5C4.00001 5.552 4.44801 6 5.00001 6C12.18 6 18 11.82 18 19C18 19.552 18.448 20 19 20C19.552 20 20 19.552 20 19C19.989 14.859 18.314 11.111 15.61 8.389L15.612 8.391L15.61 8.39Z"/></svg>

<svg xmlns="http://www.w3.org/2000/svg" width="24" height="24" fill="none"><path fill="currentColor" d="M2.88 16.88A3 3 0 0 0 2.002 19c0 .828.335 1.577.878 2.12a3 3 0 0 0 2.12.878c.828 0 1.577-.335 2.12-.878a3 3 0 0 0-4.242-4.238zl-.001-.001zm2.83 2.83a1.005 1.005 0 1 1-1.42-1.422 1.005 1.005 0 0 1 1.42 1.422M5 12a1 1 0 0 0 0 2 5 5 0 0 1 5 5 1 1 0 0 0 2 0 7 7 0 0 0-7-7m0-4a1 1 0 0 0 0 2 9 9 0 0 1 9 9 1 1 0 0 0 2 0 11.04 11.04 0 0 0-3.221-7.78l.001.001a11.05 11.05 0 0 0-7.778-3.22zm10.61.39A15.06 15.06 0 0 0 5.002 4H5a1 1 0 0 0 0 2c7.18 0 13 5.82 13 13a1 1 0 0 0 2 0 15.07 15.07 0 0 0-4.39-10.611l.002.002z"/></svg>
